;FLAVOR:Marlin
;TIME:2576
;Filament used: 1.59234m
;Layer height: 0.1
;Generated with Cura_SteamEngine 3.4.1
M190 S70
M104 S230
M109 S230
M82 ;absolute extrusion mode
G21 ; set units to millimeters
G90 ; use absolute positioning

G28 X0 Y0  ;move X/Y to min endstops
G28 Z0     ;move Z to min endstops
G29
G0 X0 Y15 F9000 ; Go to front
G0 Z0.15 ; Drop to bed
G92 E0 ; zero the extruded length
G1 X40 E25 F500 ; Extrude 25mm of filament in a 4cm line
G92 E0 ; zero the extruded length
G1 E-0.6 F500 ; Retract a little
G1 X50 F4000 ; Quickly wipe away from the filament line
G1 Z0.3 ; Raise and begin printing
G92 E0
G1 F1500 E-6.5
;LAYER_COUNT:21
;LAYER:0
M107
G0 F3600 X29.079 Y127.439 Z0.1
;TYPE:SKIRT
G1 F1500 E0
G1 F1800 X29.852 Y127.274 E0.01314
G1 X30.637 Y127.189 E0.02628
G1 X31.086 Y127.176 E0.03375
G1 X31.873 Y127.176 E0.04683
G1 X32.662 Y127.216 E0.05997
G1 X33.442 Y127.335 E0.07309
G1 X33.882 Y127.439 E0.08061
G1 X34.636 Y127.64 E0.09359
G1 X35.388 Y127.882 E0.10673
G1 X36.111 Y128.199 E0.11985
G1 X36.264 Y128.281 E0.12274
G1 X36.622 Y127.958 E0.13076
G1 X37.258 Y127.491 E0.14388
G1 X37.647 Y127.25 E0.15149
G1 X38.325 Y126.858 E0.16452
G1 X39.028 Y126.498 E0.17765
G1 X39.763 Y126.211 E0.19077
G1 X40.211 Y126.077 E0.19855
G1 X40.965 Y125.875 E0.21153
G1 X41.737 Y125.709 E0.22466
G1 X42.522 Y125.623 E0.23779
G1 X42.983 Y125.609 E0.24546
G1 X43.771 Y125.609 E0.25857
G1 X44.56 Y125.649 E0.27171
G1 X45.34 Y125.768 E0.28483
G1 X45.789 Y125.875 E0.2925
G1 X46.543 Y126.077 E0.30549
G1 X47.295 Y126.319 E0.31862
G1 X48.018 Y126.637 E0.33176
G1 X48.162 Y126.715 E0.33448
G1 X48.513 Y126.397 E0.34236
G1 X49.149 Y125.929 E0.35549
G1 X49.548 Y125.682 E0.36329
G1 X50.227 Y125.29 E0.37633
G1 X50.93 Y124.93 E0.38947
G1 X51.666 Y124.643 E0.4026
G1 X52.109 Y124.511 E0.41029
G1 X52.863 Y124.309 E0.42327
G1 X53.635 Y124.143 E0.43641
G1 X54.42 Y124.057 E0.44954
G1 X54.881 Y124.043 E0.45721
G1 X55.668 Y124.043 E0.4703
G1 X56.457 Y124.083 E0.48343
G1 X57.237 Y124.202 E0.49656
G1 X57.684 Y124.308 E0.50419
G1 X58.439 Y124.51 E0.51719
G1 X59.191 Y124.752 E0.53033
G1 X59.914 Y125.07 E0.54346
G1 X60.06 Y125.149 E0.54623
G1 X60.417 Y124.826 E0.55423
G1 X61.053 Y124.359 E0.56735
G1 X61.434 Y124.123 E0.57481
G1 X62.112 Y123.73 E0.58784
G1 X62.815 Y123.369 E0.60098
G1 X63.55 Y123.081 E0.61411
G1 X64.017 Y122.941 E0.62222
G1 X64.772 Y122.74 E0.63521
G1 X65.545 Y122.575 E0.64835
G1 X66.33 Y122.49 E0.66149
G1 X66.779 Y122.477 E0.66896
G1 X67.566 Y122.477 E0.68204
G1 X68.355 Y122.517 E0.69518
G1 X69.135 Y122.636 E0.7083
G1 X69.575 Y122.74 E0.71582
G1 X70.329 Y122.941 E0.7288
G1 X71.081 Y123.183 E0.74194
G1 X71.804 Y123.5 E0.75506
G1 X72.227 Y123.727 E0.76305
G1 X72.906 Y124.12 E0.77609
G1 X73.569 Y124.55 E0.78924
G1 X74.185 Y125.044 E0.80237
G1 X74.514 Y125.356 E0.80991
G1 X75.068 Y125.91 E0.82294
G1 X75.598 Y126.496 E0.83608
G1 X76.065 Y127.132 E0.8492
G1 X76.306 Y127.521 E0.85681
G1 X76.698 Y128.199 E0.86983
G1 X76.755 Y128.31 E0.87191
G1 X81.942 Y127.629 E0.95891
G1 X82.107 Y127.356 E0.96421
G1 X82.368 Y126.993 E0.97165
G1 X82.845 Y126.369 E0.98471
G1 X83.356 Y125.767 E0.99784
G1 X83.925 Y125.219 E1.01098
G1 X84.306 Y124.908 E1.01916
G1 X84.929 Y124.432 E1.0322
G1 X85.58 Y123.985 E1.04533
G1 X86.273 Y123.606 E1.05847
G1 X86.674 Y123.426 E1.06577
G1 X87.394 Y123.127 E1.07874
G1 X88.137 Y122.862 E1.09186
G1 X88.904 Y122.673 E1.105
G1 X89.365 Y122.598 E1.11276
G1 X90.146 Y122.495 E1.12586
G1 X91.166 Y122.428 E1.14286
G1 X128.834 Y122.428 E1.76928
G1 X129.854 Y122.495 E1.78628
G1 X130.635 Y122.598 E1.79938
G1 X131.412 Y122.741 E1.81252
G1 X132.17 Y122.961 E1.82565
G1 X132.606 Y123.127 E1.83341
G1 X133.326 Y123.426 E1.84637
G1 X134.04 Y123.766 E1.85952
G1 X134.715 Y124.176 E1.87266
G1 X135.071 Y124.432 E1.87995
G1 X135.694 Y124.908 E1.89299
G1 X136.296 Y125.419 E1.90612
G1 X136.844 Y125.987 E1.91924
G1 X137.155 Y126.369 E1.92744
G1 X137.632 Y126.993 E1.9405
G1 X138.07 Y127.63 E1.95335
G1 X143.243 Y128.309 E2.04012
G1 X143.302 Y128.199 E2.04219
G1 X143.694 Y127.521 E2.05522
G1 X144.124 Y126.858 E2.06836
G1 X144.618 Y126.242 E2.08149
G1 X144.932 Y125.91 E2.08909
G1 X145.486 Y125.356 E2.10212
G1 X146.072 Y124.826 E2.11526
G1 X146.708 Y124.359 E2.12838
G1 X147.094 Y124.12 E2.13593
G1 X147.773 Y123.727 E2.14898
G1 X148.475 Y123.367 E2.1621
G1 X149.211 Y123.079 E2.17524
G1 X149.671 Y122.941 E2.18323
G1 X150.425 Y122.74 E2.19621
G1 X151.197 Y122.576 E2.20933
G1 X151.982 Y122.49 E2.22246
G1 X152.434 Y122.477 E2.22998
G1 X153.221 Y122.477 E2.24307
G1 X154.01 Y122.517 E2.25621
G1 X154.79 Y122.636 E2.26933
G1 X155.228 Y122.74 E2.27682
G1 X155.983 Y122.941 E2.28981
G1 X156.735 Y123.182 E2.30294
G1 X157.458 Y123.498 E2.31606
G1 X157.888 Y123.73 E2.32419
G1 X158.566 Y124.123 E2.33722
G1 X159.228 Y124.553 E2.35035
G1 X159.843 Y125.048 E2.36348
G1 X159.951 Y125.15 E2.36595
G1 X160.376 Y124.932 E2.37389
G1 X161.111 Y124.645 E2.38701
G1 X161.561 Y124.51 E2.39483
G1 X162.316 Y124.308 E2.40782
G1 X163.088 Y124.143 E2.42095
G1 X163.873 Y124.057 E2.43409
G1 X164.332 Y124.043 E2.44172
G1 X165.119 Y124.043 E2.45481
G1 X165.908 Y124.083 E2.46795
G1 X166.688 Y124.202 E2.48107
G1 X167.137 Y124.309 E2.48875
G1 X167.891 Y124.511 E2.50173
G1 X168.643 Y124.753 E2.51486
G1 X169.366 Y125.071 E2.528
G1 X169.773 Y125.29 E2.53569
G1 X170.452 Y125.682 E2.54872
G1 X171.115 Y126.111 E2.56186
G1 X171.731 Y126.605 E2.57499
G1 X171.848 Y126.716 E2.57767
G1 X172.274 Y126.498 E2.58563
G1 X173.009 Y126.211 E2.59875
G1 X173.457 Y126.077 E2.60653
G1 X174.211 Y125.875 E2.61951
G1 X174.983 Y125.709 E2.63264
G1 X175.768 Y125.623 E2.64577
G1 X176.229 Y125.609 E2.65344
G1 X177.017 Y125.609 E2.66655
G1 X177.806 Y125.649 E2.67969
G1 X178.586 Y125.768 E2.69281
G1 X179.035 Y125.875 E2.70048
G1 X179.789 Y126.077 E2.71346
G1 X180.541 Y126.319 E2.7266
G1 X181.264 Y126.637 E2.73974
G1 X181.675 Y126.858 E2.7475
G1 X182.353 Y127.25 E2.76052
G1 X183.016 Y127.68 E2.77366
G1 X183.632 Y128.174 E2.78679
G1 X183.746 Y128.282 E2.78941
G1 X184.168 Y128.066 E2.79729
G1 X184.904 Y127.778 E2.81043
G1 X185.364 Y127.64 E2.81842
G1 X186.118 Y127.439 E2.8314
G1 X186.89 Y127.275 E2.84452
G1 X187.675 Y127.189 E2.85765
G1 X188.127 Y127.176 E2.86517
G1 X188.914 Y127.176 E2.87826
G1 X189.703 Y127.216 E2.8914
G1 X190.483 Y127.335 E2.90452
G1 X190.921 Y127.439 E2.91201
G1 X191.676 Y127.64 E2.925
G1 X192.428 Y127.881 E2.93813
G1 X193.151 Y128.197 E2.95125
G1 X193.581 Y128.429 E2.95938
G1 X194.259 Y128.822 E2.97241
G1 X194.921 Y129.252 E2.98554
G1 X195.536 Y129.747 E2.99867
G1 X195.862 Y130.055 E3.00613
G1 X196.416 Y130.609 E3.01916
G1 X196.946 Y131.195 E3.0323
G1 X197.413 Y131.831 E3.04542
G1 X197.654 Y132.22 E3.05303
G1 X198.046 Y132.898 E3.06605
G1 X198.406 Y133.601 E3.07919
G1 X198.693 Y134.336 E3.09231
G1 X198.827 Y134.781 E3.10004
G1 X199.029 Y135.534 E3.113
G1 X199.194 Y136.306 E3.12613
G1 X199.281 Y137.091 E3.13927
G1 X199.295 Y137.555 E3.14699
G1 X199.295 Y138.339 E3.16002
G1 X199.228 Y139.357 E3.17699
G1 X196.483 Y160.209 E3.52675
G1 X196.287 Y161.198 E3.54352
G1 X196.086 Y161.953 E3.55651
G1 X195.845 Y162.705 E3.56964
G1 X195.529 Y163.428 E3.58277
G1 X195.297 Y163.858 E3.59089
G1 X194.904 Y164.536 E3.60392
G1 X194.474 Y165.198 E3.61705
G1 X193.979 Y165.813 E3.63018
G1 X193.671 Y166.139 E3.63764
G1 X193.117 Y166.693 E3.65067
G1 X192.531 Y167.223 E3.66381
G1 X191.895 Y167.69 E3.67693
G1 X191.514 Y167.926 E3.68438
G1 X190.836 Y168.319 E3.69741
G1 X190.133 Y168.68 E3.71056
G1 X189.398 Y168.968 E3.72368
G1 X188.931 Y169.108 E3.73179
G1 X188.176 Y169.309 E3.74479
G1 X187.403 Y169.474 E3.75793
G1 X186.618 Y169.559 E3.77106
G1 X186.169 Y169.572 E3.77853
G1 X185.382 Y169.572 E3.79162
G1 X184.593 Y169.532 E3.80476
G1 X183.813 Y169.413 E3.81788
G1 X183.373 Y169.309 E3.8254
G1 X182.619 Y169.108 E3.83837
G1 X181.867 Y168.866 E3.85151
G1 X181.144 Y168.549 E3.86464
G1 X180.721 Y168.322 E3.87262
G1 X180.042 Y167.929 E3.88567
G1 X179.379 Y167.499 E3.89881
G1 X178.763 Y167.005 E3.91194
G1 X178.652 Y166.899 E3.9145
G1 X178.227 Y167.117 E3.92244
G1 X177.492 Y167.404 E3.93556
G1 X177.044 Y167.538 E3.94334
G1 X176.29 Y167.74 E3.95632
G1 X175.518 Y167.906 E3.96945
G1 X174.733 Y167.992 E3.98258
G1 X174.272 Y168.006 E3.99025
G1 X173.485 Y168.006 E4.00334
G1 X172.696 Y167.966 E4.01648
G1 X171.916 Y167.847 E4.0296
G1 X171.469 Y167.741 E4.03724
G1 X170.714 Y167.539 E4.05024
G1 X169.962 Y167.297 E4.06338
G1 X169.239 Y166.979 E4.07651
G1 X168.826 Y166.757 E4.08431
G1 X168.148 Y166.365 E4.09733
G1 X167.485 Y165.935 E4.11047
G1 X166.869 Y165.441 E4.12361
G1 X166.755 Y165.333 E4.12622
G1 X166.338 Y165.547 E4.13401
G1 X165.603 Y165.835 E4.14714
G1 X165.145 Y165.973 E4.15509
G1 X164.39 Y166.175 E4.16809
G1 X163.618 Y166.34 E4.18122
G1 X162.833 Y166.426 E4.19435
G1 X162.374 Y166.44 E4.20199
G1 X161.587 Y166.44 E4.21508
G1 X160.798 Y166.4 E4.22822
G1 X160.018 Y166.281 E4.24134
G1 X159.571 Y166.175 E4.24898
G1 X158.816 Y165.973 E4.26197
G1 X158.064 Y165.731 E4.27511
G1 X157.341 Y165.413 E4.28825
G1 X156.92 Y165.186 E4.2962
G1 X156.242 Y164.793 E4.30923
G1 X155.58 Y164.363 E4.32236
G1 X154.965 Y163.868 E4.33549
G1 X154.858 Y163.767 E4.33794
G1 X154.44 Y163.981 E4.34575
G1 X153.705 Y164.269 E4.35887
G1 X153.238 Y164.409 E4.36698
G1 X152.483 Y164.61 E4.37997
G1 X151.71 Y164.775 E4.39312
G1 X150.925 Y164.86 E4.40625
G1 X150.476 Y164.873 E4.41372
G1 X149.689 Y164.873 E4.42681
G1 X148.9 Y164.833 E4.43995
G1 X148.12 Y164.714 E4.45307
G1 X147.68 Y164.61 E4.46059
G1 X146.926 Y164.409 E4.47356
G1 X146.174 Y164.167 E4.4867
G1 X145.451 Y163.85 E4.49983
G1 X145.028 Y163.623 E4.50781
G1 X144.349 Y163.23 E4.52086
G1 X143.686 Y162.8 E4.534
G1 X143.07 Y162.306 E4.54713
G1 X142.736 Y161.989 E4.55479
G1 X142.183 Y161.435 E4.56781
G1 X141.654 Y160.849 E4.58094
G1 X141.187 Y160.212 E4.59407
G1 X140.955 Y159.837 E4.6014
G1 X140.562 Y159.159 E4.61444
G1 X140.201 Y158.456 E4.62758
G1 X139.913 Y157.721 E4.64071
G1 X139.776 Y157.268 E4.64858
G1 X139.574 Y156.515 E4.66154
G1 X139.478 Y156.068 E4.66915
G1 X138.338 Y155.918 E4.68827
G1 X137.948 Y156.147 E4.69579
G1 X136.897 Y156.599 E4.71481
G1 X136.244 Y156.825 E4.72631
G1 X135.486 Y157.045 E4.73943
G1 X134.392 Y157.223 E4.75786
G1 X133.547 Y157.299 E4.77197
G1 X132.841 Y157.33 E4.78373
G1 X86.495 Y157.287 E5.55446
G1 X85.706 Y157.246 E5.5676
G1 X84.926 Y157.126 E5.58073
G1 X84.472 Y157.018 E5.58849
G1 X83.771 Y156.829 E5.60056
G1 X83.019 Y156.585 E5.61371
G1 X82.297 Y156.267 E5.62683
G1 X81.69 Y155.914 E5.63851
G1 X80.532 Y156.066 E5.65793
G1 X80.426 Y156.515 E5.6656
G1 X80.224 Y157.268 E5.67857
G1 X79.981 Y158.019 E5.69169
G1 X79.663 Y158.742 E5.70483
G1 X79.438 Y159.159 E5.71271
G1 X79.045 Y159.837 E5.72574
G1 X78.615 Y160.499 E5.73887
G1 X78.12 Y161.114 E5.752
G1 X77.817 Y161.435 E5.75934
G1 X77.264 Y161.989 E5.77235
G1 X76.679 Y162.519 E5.78548
G1 X76.043 Y162.987 E5.79861
G1 X75.651 Y163.23 E5.80628
G1 X74.972 Y163.623 E5.81933
G1 X74.27 Y163.983 E5.83245
G1 X73.534 Y164.271 E5.84559
G1 X73.074 Y164.409 E5.85358
G1 X72.32 Y164.61 E5.86656
G1 X71.548 Y164.774 E5.87968
G1 X70.763 Y164.86 E5.89282
G1 X70.311 Y164.873 E5.90034
G1 X69.524 Y164.873 E5.91342
G1 X68.735 Y164.833 E5.92656
G1 X67.955 Y164.714 E5.93968
G1 X67.517 Y164.61 E5.94717
G1 X66.762 Y164.409 E5.96016
G1 X66.01 Y164.168 E5.97329
G1 X65.287 Y163.852 E5.98642
G1 X65.131 Y163.768 E5.98936
G1 X64.77 Y164.094 E5.99745
G1 X64.133 Y164.561 E6.01059
G1 X63.758 Y164.793 E6.01792
G1 X63.08 Y165.186 E6.03095
G1 X62.377 Y165.547 E6.0441
G1 X61.642 Y165.835 E6.05722
G1 X61.184 Y165.973 E6.06518
G1 X60.429 Y166.175 E6.07818
G1 X59.657 Y166.34 E6.0913
G1 X58.872 Y166.426 E6.10444
G1 X58.413 Y166.44 E6.11207
G1 X57.626 Y166.44 E6.12516
G1 X56.837 Y166.4 E6.1383
G1 X56.057 Y166.281 E6.15142
G1 X55.61 Y166.175 E6.15906
G1 X54.855 Y165.973 E6.17206
G1 X54.103 Y165.731 E6.18519
G1 X53.38 Y165.413 E6.19833
G1 X53.234 Y165.334 E6.20109
G1 X52.877 Y165.657 E6.2091
G1 X52.241 Y166.124 E6.22222
G1 X51.852 Y166.365 E6.22983
G1 X51.174 Y166.757 E6.24285
G1 X50.471 Y167.117 E6.25599
G1 X49.736 Y167.404 E6.26911
G1 X49.286 Y167.539 E6.27692
G1 X48.531 Y167.741 E6.28992
G1 X47.759 Y167.906 E6.30305
G1 X46.974 Y167.992 E6.31618
G1 X46.515 Y168.006 E6.32382
G1 X45.728 Y168.006 E6.33691
G1 X44.939 Y167.966 E6.35004
G1 X44.159 Y167.847 E6.36316
G1 X43.71 Y167.74 E6.37084
G1 X42.956 Y167.538 E6.38382
G1 X42.204 Y167.296 E6.39696
G1 X41.481 Y166.978 E6.41009
G1 X41.337 Y166.9 E6.41282
G1 X40.986 Y167.218 E6.42069
G1 X40.35 Y167.686 E6.43383
G1 X39.958 Y167.929 E6.4415
G1 X39.279 Y168.322 E6.45454
G1 X38.577 Y168.682 E6.46766
G1 X37.841 Y168.97 E6.48081
G1 X37.381 Y169.108 E6.48879
G1 X36.627 Y169.309 E6.50177
G1 X35.855 Y169.473 E6.51489
G1 X35.07 Y169.559 E6.52803
G1 X34.618 Y169.572 E6.53555
G1 X33.831 Y169.572 E6.54864
G1 X33.042 Y169.532 E6.56177
G1 X32.262 Y169.413 E6.57489
G1 X31.824 Y169.309 E6.58238
G1 X31.069 Y169.108 E6.59537
G1 X30.317 Y168.867 E6.60851
G1 X29.594 Y168.551 E6.62163
G1 X29.164 Y168.319 E6.62975
G1 X28.486 Y167.926 E6.64279
G1 X27.824 Y167.496 E6.65591
G1 X27.209 Y167.001 E6.66904
G1 X26.883 Y166.693 E6.6765
G1 X26.329 Y166.139 E6.68953
G1 X25.799 Y165.553 E6.70267
G1 X25.332 Y164.917 E6.71579
G1 X25.096 Y164.536 E6.72325
G1 X24.703 Y163.858 E6.73628
G1 X24.342 Y163.155 E6.74942
G1 X24.054 Y162.42 E6.76255
G1 X23.914 Y161.953 E6.77066
G1 X23.713 Y161.198 E6.78365
G1 X23.517 Y160.209 E6.80042
G1 X20.772 Y139.36 E7.15013
G1 X20.705 Y138.342 E7.16709
G1 X20.705 Y137.575 E7.17985
G1 X20.745 Y136.786 E7.19299
G1 X20.864 Y136.006 E7.20611
G1 X20.957 Y135.61 E7.21287
G1 X21.153 Y134.857 E7.22581
G1 X21.39 Y134.104 E7.23894
G1 X21.702 Y133.379 E7.25207
G1 X21.925 Y132.958 E7.25999
G1 X22.323 Y132.26 E7.27335
G1 X22.749 Y131.595 E7.28649
G1 X23.239 Y130.976 E7.29961
G1 X23.584 Y130.609 E7.30799
G1 X24.138 Y130.055 E7.32102
G1 X24.724 Y129.525 E7.33416
G1 X25.36 Y129.058 E7.34728
G1 X25.741 Y128.822 E7.35474
G1 X26.419 Y128.429 E7.36777
G1 X27.122 Y128.068 E7.38091
G1 X27.857 Y127.78 E7.39404
G1 X28.324 Y127.64 E7.40215
G1 X29.079 Y127.439 E7.41514
G0 F3600 X29.182 Y127.825
G1 F1800 X29.935 Y127.666 E7.42794
G1 X30.7 Y127.586 E7.44073
G1 X31.086 Y127.576 E7.44715
G1 X31.873 Y127.576 E7.46024
G1 X32.641 Y127.616 E7.47303
G1 X33.401 Y127.735 E7.48582
G1 X33.779 Y127.826 E7.49229
G1 X34.533 Y128.027 E7.50526
G1 X35.265 Y128.263 E7.51805
G1 X35.968 Y128.574 E7.53084
G1 X36.323 Y128.766 E7.53755
G1 X36.89 Y128.256 E7.55023
G1 X37.512 Y127.803 E7.56303
G1 X37.847 Y127.597 E7.56957
G1 X38.525 Y127.205 E7.58259
G1 X39.21 Y126.855 E7.59538
G1 X39.928 Y126.578 E7.60818
G1 X40.314 Y126.463 E7.61488
G1 X41.068 Y126.261 E7.62786
G1 X41.82 Y126.101 E7.64065
G1 X42.585 Y126.02 E7.65344
G1 X42.983 Y126.009 E7.66006
G1 X43.771 Y126.009 E7.67317
G1 X44.539 Y126.049 E7.68596
G1 X45.299 Y126.168 E7.69875
G1 X45.686 Y126.261 E7.70537
G1 X46.44 Y126.463 E7.71835
G1 X47.172 Y126.7 E7.73114
G1 X47.875 Y127.012 E7.74393
G1 X48.221 Y127.2 E7.75048
G1 X48.782 Y126.694 E7.76305
G1 X49.403 Y126.24 E7.77584
G1 X49.748 Y126.028 E7.78257
G1 X50.427 Y125.636 E7.79561
G1 X51.112 Y125.287 E7.8084
G1 X51.83 Y125.01 E7.8212
G1 X52.212 Y124.897 E7.82782
G1 X52.966 Y124.695 E7.8408
G1 X53.718 Y124.535 E7.85359
G1 X54.483 Y124.454 E7.86638
G1 X54.881 Y124.443 E7.873
G1 X55.668 Y124.443 E7.88609
G1 X56.436 Y124.483 E7.89888
G1 X57.196 Y124.602 E7.91167
G1 X57.581 Y124.694 E7.91825
G1 X58.336 Y124.896 E7.93125
G1 X59.067 Y125.134 E7.94404
G1 X59.77 Y125.445 E7.95682
G1 X60.118 Y125.634 E7.96341
G1 X60.685 Y125.124 E7.97609
G1 X61.307 Y124.671 E7.98888
G1 X61.635 Y124.469 E7.99529
