;FLAVOR:Marlin
;TIME:583
;Filament used: 0.35948m
;Layer height: 0.1
;Generated with Cura_SteamEngine 3.4.1
M190 S70
M104 S230
M109 S230
M82 ;absolute extrusion mode
G21 ; set units to millimeters
G90 ; use absolute positioning

G28 X0 Y0  ;move X/Y to min endstops
G28 Z0     ;move Z to min endstops
G29
G0 X0 Y15 F9000 ; Go to front
G0 Z0.15 ; Drop to bed
G92 E0 ; zero the extruded length
G1 X40 E25 F500 ; Extrude 25mm of filament in a 4cm line
G92 E0 ; zero the extruded length
G1 E-0.6 F500 ; Retract a little
G1 X50 F4000 ; Quickly wipe away from the filament line
G1 Z0.3 ; Raise and begin printing
G92 E0
G1 F1500 E-6.5
;LAYER_COUNT:14
;LAYER:0
M107
G0 F3600 X93.354 Y92.2 Z0.1
;TYPE:SKIRT
G1 F1500 E0
G1 F1800 X94.174 Y91.525 E0.01766
G1 X94.321 Y91.42 E0.02067
G1 X94.986 Y90.994 E0.0338
G1 X95.691 Y90.638 E0.04693
G1 X96.428 Y90.354 E0.06007
G1 X97.19 Y90.147 E0.0732
G1 X97.786 Y90.048 E0.08325
G1 X97.989 Y89.726 E0.08958
G1 X98.476 Y89.104 E0.10272
G1 X99.024 Y88.535 E0.11585
G1 X99.831 Y87.872 E0.13322
G1 X99.978 Y87.767 E0.13623
G1 X100.643 Y87.341 E0.14936
G1 X101.348 Y86.985 E0.16249
G1 X102.085 Y86.701 E0.17563
G1 X102.847 Y86.494 E0.18876
G1 X103.626 Y86.364 E0.20189
G1 X104.537 Y86.314 E0.21707
G1 X115.6 Y86.35 E0.40105
G1 X116.389 Y86.393 E0.41419
G1 X117.169 Y86.515 E0.42732
G1 X117.933 Y86.715 E0.44045
G1 X118.673 Y86.991 E0.45358
G1 X119.381 Y87.341 E0.46672
G1 X120.05 Y87.761 E0.47985
G1 X120.673 Y88.246 E0.49298
G1 X121.243 Y88.792 E0.50611
G1 X121.883 Y89.562 E0.52276
G1 X121.955 Y89.661 E0.5248
G1 X122.215 Y90.059 E0.5327
G1 X122.806 Y90.152 E0.54265
G1 X123.569 Y90.353 E0.55577
G1 X124.309 Y90.63 E0.56891
G1 X125.016 Y90.98 E0.58203
G1 X125.685 Y91.4 E0.59517
G1 X126.308 Y91.886 E0.60831
G1 X126.878 Y92.432 E0.62144
G1 X127.553 Y93.252 E0.6391
G1 X127.658 Y93.399 E0.6421
G1 X128.084 Y94.064 E0.65524
G1 X128.44 Y94.769 E0.66837
G1 X128.724 Y95.506 E0.68151
G1 X128.931 Y96.268 E0.69464
G1 X129.035 Y96.892 E0.70516
G1 X129.388 Y97.117 E0.71212
G1 X129.535 Y97.224 E0.71514
G1 X130.149 Y97.72 E0.72827
G1 X130.71 Y98.276 E0.7414
G1 X131.212 Y98.886 E0.75454
G1 X131.649 Y99.543 E0.76766
G1 X132.018 Y100.242 E0.78081
G1 X132.314 Y100.974 E0.79394
G1 X132.535 Y101.732 E0.80707
G1 X132.678 Y102.509 E0.82021
G1 X132.745 Y103.522 E0.83709
G1 X132.757 Y114.588 E1.02112
G1 X132.718 Y115.376 E1.03424
G1 X132.599 Y116.157 E1.04738
G1 X132.402 Y116.922 E1.06052
G1 X132.129 Y117.663 E1.07365
G1 X131.782 Y118.372 E1.08677
G1 X131.365 Y119.043 E1.09991
G1 X130.883 Y119.668 E1.11304
G1 X130.472 Y120.111 E1.12309
G1 X130.343 Y120.24 E1.12612
G1 X129.757 Y120.77 E1.13926
G1 X129.121 Y121.237 E1.15238
G1 X129.029 Y121.291 E1.15416
G1 X128.951 Y121.796 E1.16266
G1 X128.752 Y122.561 E1.1758
G1 X128.478 Y123.301 E1.18892
G1 X128.13 Y124.01 E1.20206
G1 X127.638 Y124.785 E1.21732
G1 X127.532 Y124.932 E1.22034
G1 X127.038 Y125.548 E1.23347
G1 X126.485 Y126.112 E1.24661
G1 X125.877 Y126.616 E1.25974
G1 X125.221 Y127.056 E1.27287
G1 X124.525 Y127.428 E1.286
G1 X123.794 Y127.728 E1.29914
G1 X123.037 Y127.952 E1.31227
G1 X122.261 Y128.098 E1.3254
G1 X122.194 Y128.103 E1.32652
G1 X121.981 Y128.438 E1.33312
G1 X121.875 Y128.585 E1.33613
G1 X121.381 Y129.201 E1.34926
G1 X120.828 Y129.765 E1.3624
G1 X120.22 Y130.269 E1.37553
G1 X119.564 Y130.709 E1.38867
G1 X118.868 Y131.081 E1.40179
G1 X118.137 Y131.381 E1.41493
G1 X117.38 Y131.605 E1.42806
G1 X116.604 Y131.751 E1.44119
G1 X115.584 Y131.823 E1.4582
G1 X115.129 Y131.825 E1.46576
G1 X114.569 Y132.201 E1.47698
G1 X114.244 Y132.387 E1.48321
G1 X113.54 Y132.744 E1.49634
G1 X112.803 Y133.028 E1.50947
G1 X111.679 Y133.306 E1.52873
G1 X111.309 Y133.369 E1.53497
G1 X110.525 Y133.462 E1.5481
G1 X109.736 Y133.476 E1.56122
G1 X108.949 Y133.409 E1.57436
G1 X108.001 Y133.219 E1.59043
G1 X107.458 Y133.075 E1.59978
G1 X106.706 Y132.835 E1.6129
G1 X105.982 Y132.519 E1.62604
G1 X105.293 Y132.132 E1.63918
G1 X104.894 Y131.843 E1.64738
G1 X104.512 Y131.843 E1.65373
G1 X103.724 Y131.803 E1.66685
G1 X102.943 Y131.683 E1.67999
G1 X102.179 Y131.485 E1.69312
G1 X101.438 Y131.211 E1.70625
G1 X100.729 Y130.863 E1.71939
G1 X100.059 Y130.445 E1.73252
G1 X99.434 Y129.962 E1.74566
G1 X99.032 Y129.592 E1.75474
G1 X98.865 Y129.427 E1.75865
G1 X98.332 Y128.844 E1.77178
G1 X97.861 Y128.21 E1.78492
G1 X97.794 Y128.099 E1.78707
G1 X97.194 Y128.004 E1.79718
G1 X96.431 Y127.803 E1.8103
G1 X95.691 Y127.526 E1.82344
G1 X94.984 Y127.176 E1.83656
G1 X94.315 Y126.756 E1.84969
G1 X93.692 Y126.27 E1.86283
G1 X93.122 Y125.724 E1.87596
G1 X92.447 Y124.904 E1.89362
G1 X92.342 Y124.757 E1.89663
G1 X91.916 Y124.092 E1.90976
G1 X91.56 Y123.387 E1.92289
G1 X91.276 Y122.65 E1.93603
G1 X91.069 Y121.888 E1.94916
G1 X90.966 Y121.271 E1.95956
G1 X90.743 Y121.132 E1.96393
G1 X90.119 Y120.648 E1.97707
G1 X89.687 Y120.247 E1.98687
G1 X89.521 Y120.081 E1.99077
G1 X88.991 Y119.495 E2.00391
G1 X88.524 Y118.859 E2.01703
G1 X88.123 Y118.179 E2.03016
G1 X87.793 Y117.461 E2.0433
G1 X87.538 Y116.714 E2.05643
G1 X87.359 Y115.945 E2.06956
G1 X87.259 Y115.161 E2.0827
G1 X87.236 Y114.561 E2.09269
G1 X87.243 Y103.554 E2.27574
G1 X87.283 Y102.765 E2.28888
G1 X87.403 Y101.985 E2.302
G1 X87.602 Y101.221 E2.31513
G1 X87.876 Y100.48 E2.32827
G1 X88.224 Y99.771 E2.3414
G1 X88.642 Y99.101 E2.35453
G1 X89.126 Y98.477 E2.36767
G1 X89.571 Y98.001 E2.3785
G1 X89.7 Y97.874 E2.38151
G1 X90.29 Y97.349 E2.39465
G1 X90.93 Y96.886 E2.40778
G1 X90.982 Y96.856 E2.40878
G1 X91.074 Y96.272 E2.41861
G1 X91.275 Y95.509 E2.43174
G1 X91.552 Y94.769 E2.44488
G1 X91.902 Y94.062 E2.458
G1 X92.322 Y93.393 E2.47113
G1 X92.808 Y92.77 E2.48427
G1 X93.354 Y92.2 E2.4974
G0 F3600 X93.746 Y92.382
G1 F1800 X94.407 Y91.85 E2.51151
G1 X94.554 Y91.745 E2.51451
G1 X95.202 Y91.331 E2.5273
G1 X95.89 Y90.987 E2.54009
G1 X96.61 Y90.716 E2.55289
G1 X97.354 Y90.521 E2.56568
G1 X98.021 Y90.418 E2.5769
G1 X98.386 Y89.859 E2.588
G1 X98.871 Y89.262 E2.60079
G1 X99.415 Y88.718 E2.61359
G1 X100.064 Y88.197 E2.62743
G1 X100.211 Y88.092 E2.63043
G1 X100.859 Y87.678 E2.64322
G1 X101.547 Y87.334 E2.65601
G1 X102.267 Y87.063 E2.66881
G1 X103.011 Y86.868 E2.6816
G1 X103.771 Y86.751 E2.69438
G1 X104.536 Y86.714 E2.70712
G1 X115.599 Y86.75 E2.8911
G1 X116.367 Y86.793 E2.90389
G1 X117.126 Y86.914 E2.91667
G1 X117.869 Y87.115 E2.92948
G1 X118.587 Y87.391 E2.94227
G1 X119.272 Y87.74 E2.95505
G1 X119.918 Y88.158 E2.96785
G1 X120.516 Y88.641 E2.98063
G1 X121.061 Y89.184 E2.99343
G1 X121.56 Y89.798 E3.00658
G1 X121.632 Y89.897 E3.00862
G1 X121.977 Y90.428 E3.01915
G1 X122.003 Y90.429 E3.01958
G1 X122.763 Y90.552 E3.03239
G1 X123.505 Y90.752 E3.04517
G1 X124.223 Y91.029 E3.05796
G1 X124.908 Y91.379 E3.07076
G1 X125.553 Y91.797 E3.08354
G1 X126.151 Y92.281 E3.09633
G1 X126.696 Y92.824 E3.10913
G1 X127.228 Y93.485 E3.12324
G1 X127.333 Y93.632 E3.12624
G1 X127.747 Y94.28 E3.13903
G1 X128.091 Y94.968 E3.15182
G1 X128.362 Y95.688 E3.16461
G1 X128.557 Y96.432 E3.17741
G1 X128.663 Y97.123 E3.18903
G1 X129.153 Y97.44 E3.19874
G1 X129.3 Y97.547 E3.20176
G1 X129.897 Y98.031 E3.21454
G1 X130.441 Y98.575 E3.22733
G1 X130.926 Y99.173 E3.24014
G1 X131.346 Y99.817 E3.25293
G1 X131.697 Y100.501 E3.26571
G1 X131.975 Y101.219 E3.27851
G1 X132.177 Y101.961 E3.2913
G1 X132.301 Y102.72 E3.30409
G1 X132.345 Y103.522 E3.31745
G1 X132.357 Y114.588 E3.50148
G1 X132.318 Y115.356 E3.51427
G1 X132.199 Y116.116 E3.52706
G1 X132.002 Y116.86 E3.53986
G1 X131.729 Y117.579 E3.55265
G1 X131.383 Y118.266 E3.56544
G1 X130.967 Y118.913 E3.57823
G1 X130.487 Y119.513 E3.59101
G1 X130.19 Y119.829 E3.59822
G1 X130.061 Y119.958 E3.60126
G1 X129.489 Y120.472 E3.61405
G1 X128.867 Y120.925 E3.62684
G1 X128.663 Y121.043 E3.63076
G1 X128.551 Y121.755 E3.64275
G1 X128.353 Y122.498 E3.65553
G1 X128.078 Y123.217 E3.66834
G1 X127.731 Y123.903 E3.68112
G1 X127.313 Y124.551 E3.69394
G1 X127.207 Y124.698 E3.69696
G1 X126.726 Y125.298 E3.70975
G1 X126.184 Y125.844 E3.72254
G1 X125.589 Y126.331 E3.73533
G1 X124.947 Y126.754 E3.74811
G1 X124.264 Y127.108 E3.76091
G1 X123.548 Y127.389 E3.7737
G1 X122.807 Y127.595 E3.78649
G1 X122.048 Y127.722 E3.79929
G1 X121.964 Y127.727 E3.80069
G1 X121.656 Y128.204 E3.81013
G1 X121.55 Y128.351 E3.81314
G1 X121.069 Y128.951 E3.82593
G1 X120.527 Y129.497 E3.83872
G1 X119.932 Y129.984 E3.85151
G1 X119.29 Y130.407 E3.8643
G1 X118.607 Y130.761 E3.87709
G1 X117.891 Y131.042 E3.88988
G1 X117.15 Y131.248 E3.90267
G1 X116.391 Y131.375 E3.91547
G1 X115.582 Y131.423 E3.92895
G1 X115.012 Y131.426 E3.93843
G1 X114.371 Y131.854 E3.95124
G1 X114.046 Y132.04 E3.95747
G1 X113.359 Y132.386 E3.97026
G1 X112.64 Y132.66 E3.98306
G1 X111.612 Y132.912 E4.00066
G1 X111.242 Y132.975 E4.0069
G1 X110.478 Y133.065 E4.0197
G1 X109.709 Y133.074 E4.03249
G1 X108.943 Y133.004 E4.04528
G1 X108.103 Y132.833 E4.05953
G1 X107.56 Y132.689 E4.06888
G1 X106.828 Y132.453 E4.08167
G1 X106.124 Y132.143 E4.09446
G1 X105.456 Y131.761 E4.10725
G1 X105.021 Y131.443 E4.11622
G1 X104.512 Y131.443 E4.12468
G1 X103.744 Y131.403 E4.13747
G1 X102.984 Y131.283 E4.15026
G1 X102.241 Y131.085 E4.16305
G1 X101.522 Y130.811 E4.17585
G1 X100.836 Y130.464 E4.18863
G1 X100.189 Y130.048 E4.20142
G1 X99.313 Y129.307 E4.22051
G1 X99.146 Y129.142 E4.22441
G1 X98.628 Y128.574 E4.23719
G1 X98.171 Y127.955 E4.24999
G1 X98.038 Y127.729 E4.25435
G1 X97.997 Y127.727 E4.25503
G1 X97.237 Y127.604 E4.26784
G1 X96.495 Y127.404 E4.28062
G1 X95.777 Y127.127 E4.29341
G1 X95.092 Y126.777 E4.30621
G1 X94.447 Y126.359 E4.31899
G1 X93.849 Y125.875 E4.33178
G1 X93.304 Y125.332 E4.34458
G1 X92.772 Y124.671 E4.35869
G1 X92.667 Y124.524 E4.36169
G1 X92.253 Y123.876 E4.37448
G1 X91.909 Y123.188 E4.38727
G1 X91.638 Y122.468 E4.40006
G1 X91.443 Y121.724 E4.41286
G1 X91.337 Y121.033 E4.42448
G1 X90.874 Y120.734 E4.43365
G1 X90.274 Y120.252 E4.44645
G1 X89.969 Y119.965 E4.45341
G1 X89.803 Y119.799 E4.45731
G1 X89.289 Y119.227 E4.4701
G1 X88.836 Y118.605 E4.4829
G1 X88.45 Y117.94 E4.49569
G1 X88.135 Y117.238 E4.50848
G1 X87.895 Y116.507 E4.52128
G1 X87.732 Y115.756 E4.53406
G1 X87.648 Y114.991 E4.54686
G1 X87.636 Y114.561 E4.55401
G1 X87.643 Y103.554 E4.73706
G1 X87.683 Y102.786 E4.74985
G1 X87.803 Y102.026 E4.76264
G1 X88.002 Y101.283 E4.77543
G1 X88.276 Y100.565 E4.78821
G1 X88.623 Y99.878 E4.80101
G1 X89.04 Y99.232 E4.8138
G1 X89.522 Y98.632 E4.8266
G1 X89.851 Y98.286 E4.83454
G1 X89.98 Y98.159 E4.83755
G1 X90.556 Y97.648 E4.85035
G1 X91.181 Y97.2 E4.86314
G1 X91.349 Y97.104 E4.86636
G1 X91.351 Y97.075 E4.86684
G1 X91.474 Y96.315 E4.87965
G1 X91.674 Y95.573 E4.89243
G1 X91.951 Y94.855 E4.90523
G1 X92.301 Y94.17 E4.91802
G1 X92.719 Y93.525 E4.9308
G1 X93.203 Y92.927 E4.94359
G1 X93.746 Y92.382 E4.95639
G0 F3600 X94.137 Y92.57
G1 F1800 X94.639 Y92.176 E4.967
G1 X94.786 Y92.071 E4.97
G1 X95.417 Y91.669 E4.98245
G1 X96.088 Y91.337 E4.9949
G1 X96.79 Y91.079 E5.00733
G1 X97.515 Y90.896 E5.01977
G1 X98.256 Y90.793 E5.03221
G1 X98.27 Y90.792 E5.03244
G1 X98.364 Y90.615 E5.03578
G1 X98.783 Y89.995 E5.04822
G1 X99.265 Y89.424 E5.06065
G1 X99.806 Y88.907 E5.07309
G1 X100.296 Y88.523 E5.08345
G1 X100.443 Y88.418 E5.08645
G1 X101.074 Y88.016 E5.09889
G1 X101.745 Y87.684 E5.11134
G1 X102.447 Y87.426 E5.12378
G1 X103.172 Y87.243 E5.13621
G1 X103.913 Y87.14 E5.14866
G1 X104.535 Y87.114 E5.15901
G1 X115.598 Y87.15 E5.34299
G1 X116.345 Y87.192 E5.35543
G1 X117.083 Y87.314 E5.36787
G1 X117.804 Y87.514 E5.38031
G1 X118.499 Y87.79 E5.39275
G1 X119.161 Y88.138 E5.40519
G1 X119.782 Y88.555 E5.41763
G1 X120.355 Y89.036 E5.43007
G1 X120.873 Y89.575 E5.4425
G1 X121.236 Y90.033 E5.45222
G1 X121.308 Y90.132 E5.45425
G1 X121.715 Y90.759 E5.46668
G1 X121.744 Y90.815 E5.46773
G1 X121.981 Y90.829 E5.47168
G1 X122.719 Y90.951 E5.48412
G1 X123.439 Y91.152 E5.49655
G1 X124.134 Y91.428 E5.50899
G1 X124.796 Y91.777 E5.52143
G1 X125.417 Y92.194 E5.53387
G1 X125.99 Y92.676 E5.54633
G1 X126.508 Y93.215 E5.55876
G1 X126.902 Y93.717 E5.56937
G1 X127.007 Y93.864 E5.57237
G1 X127.409 Y94.495 E5.58482
G1 X127.741 Y95.166 E5.59727
G1 X127.999 Y95.868 E5.6097
G1 X128.182 Y96.593 E5.62214
G1 X128.285 Y97.334 E5.63458
G1 X128.286 Y97.359 E5.635
G1 X128.368 Y97.402 E5.63654
G1 X128.917 Y97.764 E5.64747
G1 X129.064 Y97.871 E5.6505
G1 X129.645 Y98.342 E5.66293
G1 X130.172 Y98.874 E5.67539
G1 X130.639 Y99.458 E5.68782
G1 X131.041 Y100.089 E5.70026
G1 X131.373 Y100.759 E5.7127
G1 X131.632 Y101.461 E5.72514
G1 X131.815 Y102.186 E5.73758
G1 X131.919 Y102.927 E5.75002
G1 X131.945 Y103.522 E5.75993
G1 X131.957 Y114.588 E5.94395
G1 X131.918 Y115.335 E5.95639
G1 X131.799 Y116.074 E5.96884
G1 X131.602 Y116.796 E5.98129
G1 X131.33 Y117.492 E5.99372
G1 X130.984 Y118.156 E6.00617
G1 X130.57 Y118.779 E6.01861
G1 X129.907 Y119.546 E6.03547
G1 X129.778 Y119.675 E6.0385
G1 X129.221 Y120.175 E6.05095
G1 X128.615 Y120.612 E6.06337
G1 X128.28 Y120.803 E6.06979
G1 X128.271 Y120.974 E6.07263
G1 X128.151 Y121.712 E6.08507
G1 X127.953 Y122.434 E6.09752
G1 X127.679 Y123.13 E6.10996
G1 X127.332 Y123.793 E6.1224
G1 X126.989 Y124.317 E6.13282
G1 X126.883 Y124.464 E6.13583
G1 X126.413 Y125.047 E6.14828
G1 X125.885 Y125.576 E6.16071
G1 X125.302 Y126.045 E6.17316
G1 X124.673 Y126.45 E6.1856
G1 X124.005 Y126.786 E6.19803
G1 X123.304 Y127.048 E6.21048
G1 X122.579 Y127.234 E6.22293
G1 X121.839 Y127.341 E6.23536
G1 X121.727 Y127.346 E6.23722
G1 X121.674 Y127.448 E6.23914
G1 X121.332 Y127.97 E6.24951
G1 X121.226 Y128.117 E6.25253
G1 X120.756 Y128.7 E6.26498
G1 X120.228 Y129.229 E6.27741
G1 X119.645 Y129.698 E6.28985
G1 X119.016 Y130.103 E6.3023
G1 X118.348 Y130.439 E6.31473
G1 X117.647 Y130.701 E6.32718
G1 X116.922 Y130.887 E6.33962
G1 X116.182 Y130.994 E6.35206
G1 X115.58 Y131.023 E6.36208
G1 X114.896 Y131.026 E6.37345
G1 X114.172 Y131.506 E6.3879
G1 X113.847 Y131.692 E6.39413
G1 X113.179 Y132.029 E6.40657
G1 X112.479 Y132.292 E6.41901
G1 X111.545 Y132.518 E6.43499
G1 X111.175 Y132.581 E6.44123
G1 X110.432 Y132.667 E6.45367
G1 X109.684 Y132.673 E6.46611
G1 X108.939 Y132.599 E6.47856
G1 X108.206 Y132.446 E6.49101
G1 X107.663 Y132.302 E6.50035
G1 X106.951 Y132.072 E6.5128
G1 X106.268 Y131.767 E6.52523
G1 X105.621 Y131.391 E6.53768
G1 X105.148 Y131.043 E6.54744
G1 X104.512 Y131.043 E6.55802
G1 X103.765 Y131.003 E6.57046
G1 X103.027 Y130.883 E6.5829
G1 X102.306 Y130.686 E6.59533
G1 X101.609 Y130.412 E6.60778
G1 X100.946 Y130.066 E6.62022
G1 X100.324 Y129.65 E6.63266
G1 X99.594 Y129.022 E6.64868
G1 X99.427 Y128.857 E6.65258
G1 X98.924 Y128.304 E6.66501
G1 X98.483 Y127.7 E6.67745
G1 X98.276 Y127.342 E6.68433
G1 X98.019 Y127.327 E6.68861
G1 X97.281 Y127.205 E6.70105
G1 X96.561 Y127.004 E6.71348
G1 X95.866 Y126.728 E6.72591
G1 X95.204 Y126.379 E6.73836
G1 X94.583 Y125.962 E6.7508
G1 X94.01 Y125.48 E6.76325
G1 X93.492 Y124.941 E6.77568
G1 X93.098 Y124.439 E6.7863
G1 X92.993 Y124.292 E6.7893
G1 X92.591 Y123.661 E6.80174
G1 X92.259 Y122.99 E6.81419
G1 X92.001 Y122.288 E6.82663
G1 X91.818 Y121.563 E6.83906
G1 X91.715 Y120.822 E6.85151
G1 X91.714 Y120.796 E6.85194
G1 X91.63 Y120.752 E6.85352
G1 X91.008 Y120.337 E6.86595
G1 X90.252 Y119.682 E6.88258
G1 X90.086 Y119.516 E6.88649
G1 X89.586 Y118.959 E6.89894
G1 X89.149 Y118.353 E6.91136
G1 X88.778 Y117.703 E6.92381
G1 X88.479 Y117.017 E6.93625
G1 X88.255 Y116.303 E6.9487
G1 X88.108 Y115.57 E6.96113
G1 X88.036 Y114.562 E6.97794
G1 X88.043 Y103.555 E7.16098
G1 X88.083 Y102.808 E7.17342
G1 X88.203 Y102.069 E7.18587
G1 X88.401 Y101.348 E7.19831
G1 X88.675 Y100.652 E7.21075
G1 X89.022 Y99.989 E7.22319
G1 X89.437 Y99.367 E7.23563
G1 X90.132 Y98.571 E7.2532
G1 X90.261 Y98.444 E7.25621
G1 X90.821 Y97.948 E7.26865
